Hatter-kde/actions/24/draw-polygon.svg

<svg xmlns="http://www.w3.org/2000/svg" viewBox="0 0 24 24">
  <defs id="defs3051">
    <style type="text/css" id="current-color-scheme">
      .ColorScheme-Text {
        color:#363636;
      }
      </style>
  </defs>
 <path style="fill:currentColor;fill-opacity:1;stroke:none" 
     d="M 12.007812 4 L 3.8300781 12.177734 L 8.3457031 20 L 15.619141 20 L 19.636719 13.042969 L 20.154297 12.146484 L 12.007812 4 z M 12.005859 5.4140625 L 18.904297 12.310547 L 15.042969 19 L 8.9238281 19 L 5.0800781 12.341797 L 12.005859 5.4140625 z "
     class="ColorScheme-Text"
     />
</svg>

<?xml version="1.0" encoding="UTF-8"?>
<svg viewBox="0 0 24 24" xmlns="http://www.w3.org/2000/svg">
 <defs id="defs3051">
  <style id="current-color-scheme" type="text/css">.ColorScheme-Text {
        color:#363636;
      }</style>
 </defs>
 <path class="ColorScheme-Text" d="m12.008 4-8.1777 8.1777 4.5156 7.8223h7.2734l4.0176-6.957 0.51758-0.89648-8.1465-8.1465zm-0.001953 1.4141 6.8984 6.8965-3.8613 6.6895h-6.1191l-3.8438-6.6582 6.9258-6.9277z" fill="currentColor"/>
</svg>
